X:1
T:Vous qui aymez
T:Vous qui aymez
T:Jean de Castro
T:Source : Livre de chansons à 3 parties---Paris---A.le Roy & R.Ballard---1575. Editor : André Vierendeels (01/10/15).
T:Notes : Original clefs : C1, C3, C4 Editorial accidentals above the staff
C:Jean de Castro
%%score [ 1 [ 2 3 ] ]
L:1/8
Q:1/4=100
M:2/2
K:F
V:1 treble nm="Superius" snm="S"
V:2 treble-8 nm="Tenor 1" snm="T 1"
V:3 treble-8 nm="Tenor 2" snm="T 2"
V:1
 z8 | z8 | B8- | B4 A4- | A4 G4 | F4 E4 | D4 G4 | F2 G2 A2 F2 | B4 A4 | z4 z2 c2- | c2 A2 z2 B2 | %11
w: ||Blan-|* de|_ lo-|qui- mi-|ni, vous|qui ay- mez les|da- mes,|blan-|* de, blan-|
 G4 ^F4 | G4 E4 | D8 | z2 d4 c2 | d4 B4 | A2 B2 G4 | ^F8 | z4 d4 | c2 A2 B3 B | A4 z2 B2 | %21
w: de lo-|qui- mi-|ni,|di- tes|leur quel-|les sont bel-|les,|et|a- du- la- mi-|ni, et|
 A2 ^F2 G3 G | ^F8 | z4 d4 | d2 d2 =B2 B2 | c2 A4 c2 | B3 A G2 G2 | ^F2 A2 A2 A2 | G2 G2 B4 | %29
w: a- du- la- mi-|ni,|tou-|chez leur les ma-|mel- les, et|ob- scu- la- mi-|ni, tou- chez leur|les ma- mel-|
 A6 A2 | G3 F E2 E2 | F4 z4 | z2 d4 c2 | B4 A4 | B4 G4 | F4 D2 E2 | F2 G2 A4 | D4 A2 B2 | %38
w: les, et|ob- scu- la- mi-|ni,|sy troys|foys el-|les souf-|frent, chan- *||tez, chan- *|
 c2 B2 A2 G2 | A2 GF E4 | ^F8 | d6 c2 | B2 A2 B2 G2- | G2 ^FE F4 | G4 z4 | z2 d2 d3 c | B3 A G4 | %47
w: ||tez,|chan- *|||tez,|chan- tez le-|ta- mi- ni,|
 z8 | z2 A2 A2 A2 | B2 G2 c4 | =B8 | z2 G2 c3 c | F4 B3 B | G2 G2 A3 A | F4 B3 B | G4 z2 d2- | %56
w: |voz be- so-|gnes sont fai-|tes,|in no- mi-|ne do- mi-|ni, in no- mi-|ne do- mi-|ni, in|
 d2 c2 B2 B2 | A6 A2 | =B8 |] %59
w: _ no- mi- ne|do- mi-|ni.|
V:2
 z4 d4 | ^c2 d2 e2 f2 | g4 d4 | f8 | e6 e2 | f2 d2 ^c4 | z8 | z8 | g4 f3 g | a2 f2 g4 | a4 f4 | %11
w: Vous,|qui ay- mez les|da- mes,|blan-|de lo-|qui- mi- ni,|||vous, qui ay-|mez les da-|mes, blan-|
 e4 d4 | d4 ^c4 | d2 B4 A2 |"^-natural" G2 g2 f2 e2 | d4 d2 B2 | c2 d2 B2 G2 | A4 z2 d2 | %18
w: de lo-|qui- mi-|ni, di- tes|leur quel- les sont|bel- les, et|a- du- la- mi-|ni, et|
"^-natural" e2 f2 f2 d2 | e2 e2 g2 d2 | f3 f g2 g2 | f2 d2 _e2 c2 | d4 z2 a2 | a2 a2 ^f2 f2 | %24
w: a- du- la- mi-|ni, et a- du-|la- mi- ni, et|a- du- la- mi-|ni, tou-|chez leur les ma-|
 g4 d2 g2 | f6 f2 | g4 b4 |"^-natural""^-natural""^-natural" a2 f2 f2 f2 | e2 e2 d4- | d2 c4 f2 | %30
w: mel- les, et|ob- scu-|la- mi-|ni, tou- chez leur|les ma- mel-|* les, et|
 e2 d2 d2 ^c2 | d2 f4 e2 | d4 e4 | g4 c4 | g4 d4- | d2 e2 f2 g2 | a4 d2 e2 | f2 e2 d4 | c4 f4 | %39
w: ob- ccu- la- mi-|ni, sy troys|foys el-|les souf-|frent, chan-||||tez, chan-|
"^-natural" e2 d3 c/B/ c2 | d4 d2 c2 | B2 A2 B2 c2 | d6 cB | A2 G2 A4 | G4 z2 d2 | d3 c B3 A | %46
w: |tez, chan- *||||tez, chan-|tez le- ta- mi-|
 G2 d2 d2 d2 | e2 f2 d4 | c2 f2 f2 f2 | g2 g2 a4 | d2 d2 g3 g | e4 f2 e2 | d2 d2 g3 g | e4 f3 f | %54
w: ni, voz be- so-|gnes sont fai-|tes, voz be- so-|gnes sont fai-|tes, in no- mi-|ne do- mi-|ni, in no- mi-|ne do- mi-|
 d2 d2 g3 g | e4 f3 f | d2 f2 g3 g | ^f2 g4 f2 | g8 |] %59
w: ni, in no- mi-|ne do- mi-|ni, in no- mi-|ne do- mi-|ni.|
V:3
 G4 ^F2 G2 |"^-natural" A2 B2 c4 | G8 | d8 | c6 c2 | d4 A4 | B4 z2 G2 | d2 =B2 c2 d2 | G4 d2 d2 | %9
w: Vous qui ay-|mez les da-|mes,|blan-|de lo-|qui- mi-|ni, vous|qui ay- mez les|da- mes, vous|
"^-natural" ^c2 d2 e2 c2 | f4 d2 B2 | c4 d4 | G4 A4 | D2 G4 ^F2 | G4 A4 | B6 G2 | F2 D2 _E4 | %17
w: qui ay- mez les|da- mes, blan-|de lo-|qui- mi-|ni, di- tes|leur quel-|les,- quel-|les sont bel-|
 D4 d4 | c2 A2 B2 B2 | A4 z2 G2 | F2 D2 G3 G | D4 z4 | z2 d2 d2 d2 | A2 A2 d4 | G8 | z8 | %26
w: les, et|a- du- la- mi-|ni, et|a- du- la- mi-|ni,|tou- chez leur|les ma- mel-|les,||
 G4 G2 G2 | D2 D2 F4 | C4 G4 | F6 F2 | G4 A4 |"^-natural" D2 d4 c2 | B4 A4 | G4 F4 | G8 | D8- | %36
w: tou- chez leur|les ma- mel-|les, et|ob- scu-|la- mi-|ni, sy troys|foys el-|les souf-|frent,|chan-|
 D8- | D8 | A8- | A8 | z4 d4- | d2 c2 B2 A2 | G2 ^F2 G4 | D8 | d4 d3 c | B3 A G4 | z2 G2 G2 G2 | %47
w: ||tez,|_|chan-|||tez,|chan- tez le-|ta- mi- ni,|voz be- so-|
 c2 A2 B4 | A2 d2 d2 d2 | B2 c2 A4 | G4 z2 G2 | c3 c A4 | B3 B G2 G2 | c3 c F4 | B3 B G2 G2 | %55
w: gnes sont fai-|tes, voz be- so-|gnes sont fai-|tes, in|no- mi- ne|do- mi- ni, in|no- mi- ne|do- mi- ni, in|
 c3 c A2 B2- | B2 A2 G4 | D6 D2 | G8 |] %59
w: no- mi- ne do-|* mi- ni,|do- mi-|ni.|

